Adwaita++-Light/panel/16/si-syncthing-10.svg

<svg height="16" width="16" xmlns="http://www.w3.org/2000/svg">
  <path d="m1.0000001 8a7 7 0 0 0 6.9999999 7 7 7 0 0 0 7-6.9999999 7 7 0 0 0 -6.9999998-7 7 7 0 0 0 -7.0000001 6.9999999zm2.0000001.0000001a5 5 0 0 1 4.0566402-4.9082029 1.5 1.5 0 0 1 1.4433597-1.0917964 1.5 1.5 0 0 1 1.4960932 1.4218743 5 5 0 0 1 2.5859367 2.5820314 1.5 1.5 0 0 1 1.41797 1.4960947 1.5 1.5 0 0 1 -1.093751 1.4433581 5 5 0 0 1 -4.9062489 4.0566407 5 5 0 0 1 -.085942-.002 1.5 1.5 0 0 1 -1.4140619 1.001952 1.5 1.5 0 0 1 -1.5000003-1.5 1.5 1.5 0 0 1 .072269-.455079 5 5 0 0 1 -2.0722669-4.0448696zm.9999997-.0000002a4 4 0 0 0 1.673827 3.2480481 1.5 1.5 0 0 1 .8261735-.248048 1.5 1.5 0 0 1 .060541.0039l.9511775-2.3769467a1.5 1.5 0 0 1 -.5117188-1.1269531 1.5 1.5 0 0 1 1-1.4121094l.0000001-1.1757815a1.5 1.5 0 0 1 -.871094-.8105461 4 4 0 0 0 -3.1289063 3.8984367zm3.4882813 3.3750011a1.5 1.5 0 0 1 .4218769.621092 4 4 0 0 0 .0898418.003907 4 4 0 0 0 3.9003911-3.126953 1.5 1.5 0 0 1 -.8125-.873047l-1.1757815.0000003a1.5 1.5 0 0 1 -1.4121094.9999999 1.5 1.5 0 0 1 -.060548-.0039098zm1.5117189-5.2871099a1.5 1.5 0 0 1 .9121091.9121092l1.1757818-.0000004a1.5 1.5 0 0 1 .52539-.7050775 4 4 0 0 0 -1.9062497-1.90625 1.5 1.5 0 0 1 -.7070332.5234334l.0000019 1.1757852z" fill="#444"/>
</svg>

<svg xmlns="http://www.w3.org/2000/svg" width="16" height="16" version="1.1">
 <defs>
  <style id="current-color-scheme" type="text/css">
   .ColorScheme-Text { color:#444444; } .ColorScheme-Highlight { color:#4285f4; }
  </style>
 </defs>
 <path style="fill:currentColor" class="ColorScheme-Text" d="M 1.0000001,8 A 7,7 0 0 0 8,15 a 7,7 0 0 0 7,-6.9999999 7,7 0 0 0 -6.9999998,-7 A 7,7 0 0 0 1.0000001,8 Z m 2.0000001,10e-8 A 5,5 0 0 1 7.0566404,3.0917972 1.5,1.5 0 0 1 8.5000001,2.0000008 1.5,1.5 0 0 1 9.9960933,3.4218751 5,5 0 0 1 12.58203,6.0039065 1.5,1.5 0 0 1 14,7.5000012 1.5,1.5 0 0 1 12.906249,8.9433593 5,5 0 0 1 8.0000001,13 a 5,5 0 0 1 -0.085942,-0.002 1.5,1.5 0 0 1 -1.4140619,1.001952 1.5,1.5 0 0 1 -1.5000003,-1.5 1.5,1.5 0 0 1 0.072269,-0.455079 A 5,5 0 0 1 2.999998,8.0000034 Z m 0.9999997,-2e-7 A 4,4 0 0 0 5.6738269,11.248048 1.5,1.5 0 0 1 6.5000004,11 a 1.5,1.5 0 0 1 0.060541,0.0039 L 7.5117189,8.6269533 a 1.5,1.5 0 0 1 -0.5117188,-1.1269531 1.5,1.5 0 0 1 1,-1.4121094 l 1e-7,-1.1757815 A 1.5,1.5 0 0 1 7.1289062,4.1015632 4,4 0 0 0 3.9999999,7.9999999 Z M 7.4882812,11.375001 A 1.5,1.5 0 0 1 7.9101581,11.996093 4,4 0 0 0 7.9999999,12 4,4 0 0 0 11.900391,8.873047 1.5,1.5 0 0 1 11.087891,8 l -1.1757815,3e-7 A 1.5,1.5 0 0 1 8.5000001,9.0000002 1.5,1.5 0 0 1 8.4394521,8.9960904 L 7.4882812,11.375001 Z M 9.0000001,6.0878911 a 1.5,1.5 0 0 1 0.9121091,0.9121092 l 1.1757818,-4e-7 A 1.5,1.5 0 0 1 11.613281,6.2949224 4,4 0 0 0 9.7070313,4.3886724 1.5,1.5 0 0 1 8.9999981,4.9121058 L 9,6.087891 Z"/>
</svg>
